X: 22
T: Kanefartdans
B:[[Notböcker/Melodier til gamle danske Almuedanse for Violin solo]]
O:Danmark
Z:Søren Bak Vestergaard
M: 2/4
L: 1/8
K: F
fcAc|fdBf|egeg|(f/e/f/g/) (.f.c)|fcAc|fdBf|[ac]2[eB]2|[fA]2 z2:|\
|:(!downbow!ge) (ge)|(af) (cA)|BAGF|E/F/G/E/ C2|(!downbow!fc) .c.A|(fd) .d.B|[ac]2[eB]2|[fA]2 z2:|\
|:[K: Bb]f2 (e/d/c/B/)|Eg Df|Ce B,d|(c/A/)c/A/ F2|f2 (e/d/c/B/)|gabB|cBcd|B2 z2:|

